app/assets/img/svg-icons/icon-close.svg

<?xml version="1.0" encoding="UTF-8" standalone="no"?>
<svg width="70px" height="70px" viewBox="0 0 70 70" version="1.1" xmlns="http://www.w3.org/2000/svg" xmlns:xlink="http://www.w3.org/1999/xlink">
    <!-- Generator: Sketch 3.6.1 (26313) - http://www.bohemiancoding.com/sketch -->
    <title>Shape</title>
    <desc>Created with Sketch.</desc>
    <defs></defs>
    <g id="Page-1" stroke="none" stroke-width="1" fill="none" fill-rule="evenodd">
        <path d="M32.7675362,35 L15.8968116,51.8707246 C15.2805797,52.4863768 15.2805797,53.4875362 15.8968116,54.1031884 C16.2046377,54.4110145 16.6098551,54.5652174 17.0133333,54.5652174 C17.4185507,54.5652174 17.8214493,54.4110145 18.1292754,54.1031884 L35,37.2324638 L51.8707246,54.1031884 C52.1785507,54.4110145 52.5837681,54.5652174 52.9866667,54.5652174 C53.3901449,54.5652174 53.7953623,54.4110145 54.1031884,54.1031884 C54.7194203,53.4875362 54.7194203,52.4863768 54.1031884,51.8707246 L37.2324638,35 L54.1031884,18.1292754 C54.7194203,17.5136232 54.7194203,16.5124638 54.1031884,15.8968116 C53.4875362,15.2805797 52.4863768,15.2805797 51.8707246,15.8968116 L35,32.7675362 L18.1292754,15.8968116 C17.5136232,15.2805797 16.5124638,15.2805797 15.8968116,15.8968116 C15.2805797,16.5124638 15.2805797,17.5136232 15.8968116,18.1292754 L32.7675362,35 Z M34.9788522,0 C15.7046983,0 0,15.7046991 0,34.9788522 C0,54.2530046 15.7046983,70 34.9788522,70 C54.2530046,70 70,54.2530046 70,34.9788522 C70,15.7046991 54.2530046,0 34.9788522,0 L34.9788522,0 Z M35.1699982,3 C53.0004179,3 67.3399963,17.3395783 67.3399963,35.1699987 C67.3399963,53.0004181 53.0004179,67.3399963 35.1699982,67.3399963 C17.3395785,67.3399963 3,53.0004181 3,35.1699987 C3,17.3395783 17.3395785,3 35.1699982,3 L35.1699982,3 Z" id="Shape" fill="#000000"></path>
    </g>
</svg>

<svg width='70' height='70' viewBox='0 0 140 140'
xmlns='http://www.w3.org/2000/svg'>
  <path d='M32.768 35l-16.87 16.87c-.617.616-.617 1.618 0 2.233.307.308.712.462 1.115.462.406 0 .808-.154 1.116-.462L35 37.233l16.87 16.87c.31.308.714.462 1.117.462s.808-.154 1.116-.462c.616-.615.616-1.617 0-2.232L37.233 35l16.87-16.87c.616-.616.616-1.618 0-2.233-.615-.616-1.617-.616-2.232 0L35 32.767l-16.87-16.87c-.616-.616-1.618-.616-2.233 0-.616.615-.616 1.617 0 2.232L32.767 35zm2.21-35C15.706 0 0 15.705 0 34.98 0 54.252 15.705 70 34.98 70 54.252 70 70 54.253 70 34.98 70 15.704 54.253 0 34.98 0zm.192 3C53 3 67.34 17.34 67.34 35.17 67.34 53 53 67.34 35.17 67.34 17.34 67.34 3 53 3 35.17 3 17.34 17.34 3 35.17 3z'
  fill='#FFF' fill-rule='evenodd' />
</svg>
